app/src/assets/tokenIcon.svg

<svg width="60" height="60" viewBox="0 0 60 60" fill="none" xmlns="http://www.w3.org/2000/svg">
<circle cx="30" cy="30" r="30" fill="#C6F8E3" fill-opacity="0.6"/>
<ellipse cx="29.6954" cy="25.2777" rx="11.9681" ry="5.24387" fill="#90F2C8"/>
<path fill-rule="evenodd" clip-rule="evenodd" d="M41.1679 29.0237C39.6967 31.1898 35.117 32.7694 29.6954 32.7694C24.2737 32.7694 19.6941 31.1898 18.2228 29.0237C17.9004 29.4984 17.7272 30.0013 17.7272 30.5219C17.7272 33.418 23.0856 35.7657 29.6954 35.7657C36.3052 35.7657 41.6635 33.418 41.6635 30.5219C41.6635 30.0013 41.4904 29.4984 41.1679 29.0237Z" fill="#A4F4D2" fill-opacity="0.8"/>
<path fill-rule="evenodd" clip-rule="evenodd" d="M41.1679 33.9519C39.6967 36.118 35.117 37.6976 29.6954 37.6976C24.2737 37.6976 19.6941 36.118 18.2228 33.9519C17.9004 34.4266 17.7272 34.9295 17.7272 35.4501C17.7272 38.3462 23.0856 40.694 29.6954 40.694C36.3052 40.694 41.6635 38.3462 41.6635 35.4501C41.6635 34.9295 41.4904 34.4266 41.1679 33.9519Z" fill="#A4F4D2" fill-opacity="0.8"/>
</svg>

<svg width="60" height="60" fill="none" xmlns="http://www.w3.org/2000/svg"><circle cx="30" cy="30" r="30" fill="#C6F8E3" fill-opacity=".6"/><ellipse cx="29.695" cy="25.278" rx="11.968" ry="5.244" fill="#90F2C8"/><path fill-rule="evenodd" clip-rule="evenodd" d="M41.168 29.024c-1.471 2.166-6.051 3.745-11.473 3.745-5.421 0-10-1.58-11.472-3.745-.323.474-.496.977-.496 1.498 0 2.896 5.359 5.244 11.968 5.244 6.61 0 11.968-2.348 11.968-5.244 0-.52-.173-1.024-.495-1.498z" fill="#A4F4D2" fill-opacity=".8"/><path fill-rule="evenodd" clip-rule="evenodd" d="M41.168 33.952c-1.471 2.166-6.051 3.746-11.473 3.746-5.421 0-10-1.58-11.472-3.746-.323.475-.496.977-.496 1.498 0 2.896 5.359 5.244 11.968 5.244 6.61 0 11.968-2.348 11.968-5.244 0-.52-.173-1.023-.495-1.498z" fill="#A4F4D2" fill-opacity=".8"/></svg>
